source/img/sprite/sun.svg

<svg width="22" height="22" viewBox="0 0 22 22" fill="none" xmlns="http://www.w3.org/2000/svg">
<path d="M14.545 7.45505C13.6455 6.55558 12.3757 5.97357 11 5.97357C9.62433 5.97357 8.35449 6.52912 7.45502 7.45505C6.55555 8.35451 5.97354 9.62435 5.97354 11C5.97354 12.3757 6.55555 13.6455 7.45502 14.545C8.35449 15.4444 9.62433 16.0265 11 16.0265C12.3757 16.0265 13.6455 15.4709 14.545 14.545C15.4444 13.6455 16.0265 12.3757 16.0265 11C16.0265 9.62435 15.4709 8.35451 14.545 7.45505ZM13.5926 13.5926C12.9312 14.254 12.0053 14.6508 11 14.6508C9.9947 14.6508 9.06878 14.254 8.4074 13.5926C7.74603 12.9312 7.3492 12.0053 7.3492 11C7.3492 9.99472 7.74603 9.0688 8.4074 8.40742C9.06878 7.74605 9.9947 7.34923 11 7.34923C12.0053 7.34923 12.9312 7.74605 13.5926 8.40742C14.254 9.0688 14.6508 9.99472 14.6508 11C14.6508 12.0053 14.254 12.9312 13.5926 13.5926Z" fill="#2D383F"/>
<path d="M20.3122 10.3122H18.2751C17.9048 10.3122 17.5873 10.6297 17.5873 11C17.5873 11.3704 17.9048 11.6879 18.2751 11.6879H20.3122C20.6825 11.6879 21 11.3704 21 11C21 10.6297 20.6825 10.3122 20.3122 10.3122Z" fill="#2D383F"/>
<path d="M11 17.5873C10.6296 17.5873 10.3122 17.9048 10.3122 18.2751V20.3122C10.3122 20.6825 10.6296 21 11 21C11.3704 21 11.6878 20.6825 11.6878 20.3122V18.2751C11.6878 17.9048 11.3704 17.5873 11 17.5873Z" fill="#2D383F"/>
<path d="M18.0635 17.1111L16.6085 15.656C16.3704 15.3915 15.9207 15.3915 15.6561 15.656C15.3916 15.9206 15.3916 16.3439 15.6561 16.6084L17.1111 18.0634C17.3757 18.328 17.799 18.328 18.0635 18.0634C18.3281 17.7989 18.3281 17.3756 18.0635 17.1111Z" fill="#2D383F"/>
<path d="M11 1C10.6296 1 10.3122 1.31746 10.3122 1.68783V3.72486C10.3122 4.09523 10.6296 4.41269 11 4.41269C11.3704 4.41269 11.6878 4.09523 11.6878 3.72486V1.68783C11.6878 1.31746 11.3704 1 11 1Z" fill="#2D383F"/>
<path d="M18.0899 3.93653C17.8254 3.67198 17.4021 3.67198 17.1376 3.93653L15.6825 5.39155C15.418 5.6561 15.418 6.07938 15.6825 6.34393C15.9206 6.60848 16.3704 6.60848 16.6349 6.34393L18.0899 4.88891C18.3545 4.62436 18.3545 4.20108 18.0899 3.93653Z" fill="#2D383F"/>
<path d="M3.72487 10.3122H1.68783C1.31746 10.3122 1 10.6297 1 11C1 11.3704 1.29101 11.6879 1.68783 11.6879H3.72487C4.09524 11.6879 4.4127 11.3704 4.4127 11C4.4127 10.6297 4.09524 10.3122 3.72487 10.3122Z" fill="#2D383F"/>
<path d="M6.31746 15.656C6.07937 15.3915 5.62963 15.3915 5.36508 15.656L3.91005 17.1111C3.6455 17.3756 3.6455 17.7989 3.91005 18.0634C4.1746 18.328 4.59788 18.328 4.86243 18.0634L6.31746 16.6084C6.58201 16.3439 6.58201 15.9206 6.31746 15.656Z" fill="#2D383F"/>
<path d="M6.31746 5.39155L4.86243 3.93653C4.59788 3.67198 4.1746 3.67198 3.91005 3.93653C3.6455 4.20108 3.6455 4.62436 3.91005 4.88891L5.36508 6.34393C5.62963 6.60848 6.05291 6.60848 6.31746 6.34393C6.58201 6.07938 6.58201 5.6561 6.31746 5.39155Z" fill="#2D383F"/>
</svg>

<svg viewBox="0 0 22 22" fill="none" xmlns="http://www.w3.org/2000/svg"><path d="M14.54 7.46a5.04 5.04 0 0 0-3.54-1.49 5.04 5.04 0 0 0-5.03 5.03 5.04 5.04 0 0 0 8.57 3.54 4.93 4.93 0 0 0 0-7.09Zm-.95 6.13a3.66 3.66 0 0 1-2.59 1.06c-1 0-1.93-.4-2.6-1.06a3.66 3.66 0 0 1-1.05-2.59c0-1 .4-1.93 1.06-2.6a3.66 3.66 0 0 1 2.59-1.05c1 0 1.93.4 2.6 1.06a3.66 3.66 0 0 1 1.05 2.59c0 1-.4 1.93-1.06 2.6Zm6.72-3.28h-2.03a.7.7 0 0 0-.7.69c0 .37.32.69.7.69h2.03a.7.7 0 0 0 .69-.69.7.7 0 0 0-.69-.69Zm-9.31 7.28a.7.7 0 0 0-.69.69v2.03c0 .37.32.69.69.69a.7.7 0 0 0 .69-.69v-2.03a.7.7 0 0 0-.69-.7Zm7.06-.48-1.45-1.45c-.24-.27-.69-.27-.95 0a.67.67 0 0 0 0 .95l1.45 1.45c.27.27.69.27.95 0a.67.67 0 0 0 0-.95Zm-7.06-16.11a.7.7 0 0 0-.69.69v2.03c0 .38.32.7.69.7a.7.7 0 0 0 .69-.7v-2.03a.7.7 0 0 0-.69-.69Zm7.09 2.94a.67.67 0 0 0-.95 0l-1.46 1.45a.67.67 0 0 0 0 .95c.24.27.69.27.95 0l1.46-1.45a.67.67 0 0 0 0-.95Zm-14.37 6.37h-2.03a.7.7 0 0 0-.69.69c0 .37.3.69.69.69h2.03a.7.7 0 0 0 .7-.69.7.7 0 0 0-.7-.69Zm2.6 5.35c-.24-.27-.69-.27-.95 0l-1.46 1.45a.67.67 0 0 0 0 .95c.26.27.69.27.95 0l1.46-1.45a.67.67 0 0 0 0-.95Zm0-10.26-1.46-1.46a.67.67 0 0 0-.95 0 .67.67 0 0 0 0 .95l1.46 1.45c.26.27.68.27.95 0a.67.67 0 0 0 0-.95Z" fill="#2D383F"/></svg>
